X:241
T: AUSBUENDIG SUESS
N: Z0240
O: Europa, Mitteleuropa, Deutschland, Kuhlaendchen
R: Romanze; Tanz, Hochzeit
M: 3/4
L: 1/16
K: A
 | A2GFE4G2B2 | A4z8
c2e2d4c4 | B2A2G2F2
E2A2 | G2A2B2c2G2B2 | A8z4
c2cBc4e4 | e2dcd6
c2 | c2B2B4f4 | c2cBc4
e4 | ^d2e2f2g2d2f2 | e4fg^dfe4

